X:1
T:Title
L:1/8
Q:1/4=110
M:3/4
K:Ab
V:1 treble nm="Church Organ, Staff"
V:1
 c3 A A2 | A3 F F2 | E2 F2 E2 | F2 E2 E2 | F2 G2 c2 | B2 B2 F2 | B6 | B3 B B2 | B3 B B2 | %9
w: By~C.~F.~Roper * *|||||||||
 B2 e2 _c2 | =d2 c2 c2 | B3 A G2 | A3 G F2 | E6 | c3 c c2 | e2 e2 e2 | e2 d2 d2 | d2 c4 | %18
w: |||||||||
 c2 c2 B2 | A3 A F2 | G6 | c3 c c2 | =A2 G2 F2 | F2 B2 c2 | d4 B2 | A3 E c2 | B3 E c2 | A6 |] %28
w: ||||||||||

